icons/label-warning.svg

<svg xmlns="http://www.w3.org/2000/svg" width="24" height="24" viewBox="0 0 24 24">
  <path d="M15.0924635,4 C15.6691887,4 16.2178408,4.24896086 16.5976169,4.68299078 L21.8476169,10.6829908 C22.5074124,11.4370428 22.5074124,12.5629572 21.8476169,13.3170092 L16.5976169,19.3170092 C16.2178408,19.7510391 15.6691887,20 15.0924635,20 L4,20 C2.8954305,20 2,19.1045695 2,18 L2,6 C2,4.8954305 2.8954305,4 4,4 L15.0924635,4 Z M10,14 C9.44771525,14 9,14.4477153 9,15 C9,15.5522847 9.44771525,16 10,16 C10.5522847,16 11,15.5522847 11,15 C11,14.4477153 10.5522847,14 10,14 Z M10,8 C9.44771525,8 9,8.44771525 9,9 L9,9 L9,12 C9,12.5522847 9.44771525,13 10,13 C10.5522847,13 11,12.5522847 11,12 L11,12 L11,9 C11,8.44771525 10.5522847,8 10,8 Z"/>
</svg>

<svg xmlns="http://www.w3.org/2000/svg" viewBox="0 0 24 24">
  <path d="M15.1 4a2 2 0 0 1 1.5.68l5.25 6a2 2 0 0 1 0 2.64l-5.25 6a2 2 0 0 1-1.5.68H4a2 2 0 0 1-2-2V6c0-1.1.9-2 2-2h11.1zM10 14a1 1 0 1 0 0 2 1 1 0 0 0 0-2zm0-6a1 1 0 0 0-1 1v3a1 1 0 0 0 2 0V9a1 1 0 0 0-1-1z"/>
</svg>
